packages/match-icons/product/svg/cli.svg

<svg fill="none" height="32" viewBox="0 0 32 32" width="32" xmlns="http://www.w3.org/2000/svg" xmlns:xlink="http://www.w3.org/1999/xlink"><clipPath id="a"><path d="m0 0h32v32h-32z"/></clipPath><g clip-path="url(#a)" fill="#394762"><path d="m8.00002 22c-.13231-.0005-.26319-.0273-.38507-.0788s-.23232-.1267-.32493-.2212c-.18626-.1874-.2908-.4408-.2908-.705s.10454-.5176.2908-.705l3.89998-3.89c.088-.0956.1378-.2201.14-.35-.0003-.1351-.0543-.2646-.15-.36l-3.99998-3.94c-.10527-.0889-.19102-.1986-.25188-.3222-.06086-.1237-.09551-.2585-.10179-.3962-.00627-.1376.01598-.2751.06534-.4038.04936-.1286.12478-.2457.22152-.3438.09675-.0981.21272-.1752.34066-.2264.12793-.0512.26507-.07534.40279-.07102.13773.00431.27308.03702.39756.09612.12447.0591.23539.1433.3258.2473l3.99998 3.94c.2328.2322.4175.5081.5436.8118.126.3038.1909.6294.1909.9582s-.0649.6545-.1909.9582c-.1261.3037-.3108.5796-.5436.8118l-3.82998 3.85c-.09371.1067-.20907.1922-.33838.2508-.12932.0586-.26964.089-.41162.0892z"/><path d="m29.5 28h-27c-.66304 0-1.29893-.2634-1.767767-.7322-.468841-.4689-.732233-1.1048-.732233-1.7678v-19c0-.66304.263392-1.29893.732233-1.76777.468837-.46884 1.104727-.73223 1.767767-.73223h27c.663 0 1.2989.26339 1.7678.73223.4688.46884.7322 1.10473.7322 1.76777v19c0 .663-.2634 1.2989-.7322 1.7678-.4689.4688-1.1048.7322-1.7678.7322zm-27-22c-.13261 0-.25979.05268-.35355.14645-.09377.09376-.14645.22094-.14645.35355v19c0 .1326.05268.2598.14645.3536.09376.0937.22094.1464.35355.1464h27c.1326 0 .2598-.0527.3536-.1464.0937-.0938.1464-.221.1464-.3536v-19c0-.13261-.0527-.25979-.1464-.35355-.0938-.09377-.221-.14645-.3536-.14645z"/><path d="m24 22h-7c-.2652 0-.5196-.1054-.7071-.2929s-.2929-.4419-.2929-.7071.1054-.5196.2929-.7071.4419-.2929.7071-.2929h7c.2652 0 .5196.1054.7071.2929s.2929.4419.2929.7071-.1054.5196-.2929.7071-.4419.2929-.7071.2929z"/></g></svg>

<svg width="32" height="32" viewBox="0 0 32 32" fill="none" xmlns="http://www.w3.org/2000/svg">
<g clip-path="url(#clip0)">
<path d="M8.00002 22C7.86771 21.9995 7.73683 21.9727 7.61495 21.9212C7.49307 21.8697 7.38263 21.7945 7.29002 21.7C7.10376 21.5126 6.99922 21.2592 6.99922 20.995C6.99922 20.7308 7.10376 20.4774 7.29002 20.29L11.19 16.4C11.278 16.3044 11.3278 16.1799 11.33 16.05C11.3297 15.9149 11.2757 15.7854 11.18 15.69L7.18002 11.75C7.07475 11.6611 6.989 11.5514 6.92814 11.4278C6.86728 11.3041 6.83263 11.1693 6.82635 11.0316C6.82008 10.894 6.84233 10.7565 6.89169 10.6278C6.94105 10.4992 7.01647 10.3821 7.11321 10.284C7.20996 10.1859 7.32593 10.1088 7.45387 10.0576C7.5818 10.0064 7.71894 9.98226 7.85666 9.98658C7.99439 9.99089 8.12974 10.0236 8.25422 10.0827C8.37869 10.1418 8.48961 10.226 8.58002 10.33L12.58 14.27C12.8128 14.5022 12.9975 14.7781 13.1236 15.0818C13.2496 15.3856 13.3145 15.7112 13.3145 16.04C13.3145 16.3688 13.2496 16.6945 13.1236 16.9982C12.9975 17.3019 12.8128 17.5778 12.58 17.81L8.75002 21.66C8.65631 21.7667 8.54095 21.8522 8.41164 21.9108C8.28232 21.9694 8.142 21.9998 8.00002 22V22Z" fill="#394762"/>
<path d="M29.5 28H2.5C1.83696 28 1.20107 27.7366 0.732233 27.2678C0.263392 26.7989 0 26.163 0 25.5L0 6.5C0 5.83696 0.263392 5.20107 0.732233 4.73223C1.20107 4.26339 1.83696 4 2.5 4H29.5C30.163 4 30.7989 4.26339 31.2678 4.73223C31.7366 5.20107 32 5.83696 32 6.5V25.5C32 26.163 31.7366 26.7989 31.2678 27.2678C30.7989 27.7366 30.163 28 29.5 28V28ZM2.5 6C2.36739 6 2.24021 6.05268 2.14645 6.14645C2.05268 6.24021 2 6.36739 2 6.5V25.5C2 25.6326 2.05268 25.7598 2.14645 25.8536C2.24021 25.9473 2.36739 26 2.5 26H29.5C29.6326 26 29.7598 25.9473 29.8536 25.8536C29.9473 25.7598 30 25.6326 30 25.5V6.5C30 6.36739 29.9473 6.24021 29.8536 6.14645C29.7598 6.05268 29.6326 6 29.5 6H2.5Z" fill="#394762"/>
<path d="M24 22H17C16.7348 22 16.4804 21.8946 16.2929 21.7071C16.1054 21.5196 16 21.2652 16 21C16 20.7348 16.1054 20.4804 16.2929 20.2929C16.4804 20.1054 16.7348 20 17 20H24C24.2652 20 24.5196 20.1054 24.7071 20.2929C24.8946 20.4804 25 20.7348 25 21C25 21.2652 24.8946 21.5196 24.7071 21.7071C24.5196 21.8946 24.2652 22 24 22Z" fill="#394762"/>
</g>
<defs>
<clipPath id="clip0">
<rect width="32" height="32" fill="white"/>
</clipPath>
</defs>
</svg>
